X: 154
T: Mi Yivne Bayit
C: Nachum Nardi 1964
O: Israel
N: Tikva Records T104: Dance for Fun, Ayala Goren, Shai Burstyn, Geula Zohar
M: 4/4
L: 1/8
K: D
Q: 1/4=132
%%MIDI gchord fzfz
"D"A,DDE F2ED|"A"A2GB A4|\
"D"A,DDE F2ED|"A"A2GB A4|
"Em"E/E/G2G GFE2|"A"F/G/A2d AGA2|\
"Em"E/E/G2G GFE2|"D"FA2G FED2|
"Em"E/E/G2G GFE2|"A"F/G/A2d AGA2|\
"Em"E/E/G2G GFE2|"D"FA2G FED2|



